X: 127303
P: Country Dance.
M: 6/8
L: 1/8
K: G
uG |\
vG2vB B2uA | AGG G2ud | d2F F2A | AGG G2D |\
ud |\
gfg ua2ud | cBc def | gfg afd | cBc def |\
vg2vg gfg | ue2ue efg | ded cBA | G2z g2 |]



